art/logo.svg

<svg xmlns="http://www.w3.org/2000/svg" fill="none" viewBox="0 0 568 100"><path fill="#fff" d="M50 100c27.614 0 50-22.386 50-50S77.614 0 50 0 0 22.386 0 50s22.386 50 50 50ZM320.1 61.8l.2-1.8c.7-5.7-.9-11.2-4.4-15.1-3.2-3.6-7.7-5.6-12.6-5.6-9.7 0-17.5 8-17.5 17.8 0 10.7 7.4 17.8 18.4 17.8 6.6 0 10.5-2.8 14.7-7.3l1.5-1.6-5.6-4.3 5.3.1Zm-16.8-12.9c3.6 0 5.2 2 5.9 3.6h-11.8c.7-1.6 2.3-3.6 5.9-3.6Zm.4 16.5c-3.5 0-5.4-1.9-6.3-3.6h13.4c-.8.9-3.5 3.6-7.1 3.6ZM185.8 41.5l-1.2-.6c-2-1-4.1-1.5-6.2-1.5-2.6 0-5 .5-7.1 1.4-2.1.9-4 2.3-5.6 3.9-1.5 1.6-2.7 3.6-3.6 5.7-.8 2.1-1.3 4.4-1.3 6.8 0 2.2.4 4.4 1.1 6.4h-12.6V25H138v49.2h25.5v-7.8c.7 1.1 1.4 2.2 2.3 3.2 1.5 1.7 3.4 3 5.6 3.9 2.1.9 4.5 1.4 7.1 1.4 2.1 0 4.2-.5 6.2-1.5.4-.2.8-.4 1.2-.7v1.4H197v-34h-11.1v1.4h-.1Zm-.5 18.7c-.3.9-.8 1.7-1.4 2.4-.6.7-1.3 1.2-2.2 1.6-.8.4-1.8.6-2.8.6-1 0-2-.2-2.8-.6-.9-.4-1.6-.9-2.2-1.6-.6-.7-1.1-1.4-1.4-2.4-.3-.9-.5-2-.5-3 0-1.1.2-2.1.5-3 .3-.9.8-1.7 1.4-2.4.6-.7 1.3-1.2 2.2-1.6.8-.4 1.7-.6 2.8-.6 1.1 0 2 .2 2.8.6.9.4 1.6.9 2.2 1.6.6.7 1.1 1.5 1.4 2.4.3.9.5 1.9.5 3 0 1-.1 2-.5 3ZM332 25v49.2h-11.1V25H332Zm-52.6 15.1-7.5 19.5-7.5-19.5h-21.1v1.4l-1.2-.6c-2-1-4.1-1.5-6.2-1.5-2.6 0-5 .5-7.1 1.4-2.1.9-4 2.3-5.6 3.9-.6.6-1.1 1.3-1.6 2.1v-6.6h-23.2v34.1h11.1V51h10c-.7 2-1.1 4-1.1 6.1 0 2.4.4 4.7 1.3 6.8.8 2.1 2 4 3.6 5.7 1.5 1.7 3.4 3 5.6 3.9 2.2.9 4.5 1.4 7.1 1.4 2.1 0 4.2-.5 6.2-1.5.4-.2.8-.4 1.2-.7v1.4h11.1V44l11.7 30.2h11.6L291 40.1h-11.6Zm-36.6 20.1c-.3.9-.8 1.7-1.4 2.4-.6.7-1.3 1.2-2.2 1.6-.8.4-1.8.6-2.8.6-1 0-2-.2-2.8-.6-.9-.4-1.6-.9-2.2-1.6-.6-.7-1.1-1.4-1.4-2.4-.3-.9-.5-2-.5-3 0-1.1.2-2.1.5-3 .3-.9.8-1.7 1.4-2.4.6-.7 1.3-1.2 2.2-1.6.8-.4 1.7-.6 2.8-.6 1 0 2 .2 2.8.6.9.4 1.6.9 2.2 1.6.6.7 1.1 1.5 1.4 2.4.3.9.5 1.9.5 3 0 1-.1 2-.5 3Z"/><path fill="#000" d="M147.5 65.6h14v6.7H140V27h7.5v38.6Zm40.3-23.5h7.1v30.1h-7.1v-4.1c-1 1.5-2.3 2.7-4.1 3.6-1.8.9-3.5 1.3-5.3 1.3-2.3 0-4.4-.4-6.3-1.3-1.9-.8-3.5-2-4.9-3.5-1.4-1.5-2.4-3.1-3.2-5-.8-1.9-1.1-3.9-1.1-6.1 0-2.1.4-4.1 1.1-6 .8-1.9 1.8-3.6 3.2-5.1 1.4-1.5 3-2.6 4.9-3.5 1.9-.8 4-1.3 6.3-1.3 1.8 0 3.5.4 5.3 1.3 1.8.9 3.1 2 4.1 3.6v-4Zm0 15.1c0-1.3-.2-2.5-.6-3.7-.4-1.2-1-2.2-1.8-3-.8-.9-1.7-1.6-2.8-2.1-1.1-.5-2.3-.8-3.7-.8-1.3 0-2.6.3-3.6.8-1.1.5-2 1.2-2.8 2.1-.8.9-1.4 1.9-1.8 3-.4 1.2-.6 2.4-.6 3.7 0 1.3.2 2.5.6 3.7.4 1.2 1 2.2 1.8 3 .8.9 1.7 1.6 2.8 2.1 1.1.5 2.3.8 3.6.8 1.3 0 2.6-.3 3.7-.8s2-1.2 2.8-2.1c.8-.9 1.4-1.9 1.8-3 .4-1.2.6-2.4.6-3.7Zm57.5-15.1h7.1v30.1h-7.1v-4.1c-1 1.5-2.3 2.7-4.1 3.6-1.8.9-3.5 1.3-5.3 1.3-2.3 0-4.4-.4-6.3-1.3-1.9-.8-3.5-2-4.9-3.5-1.4-1.5-2.4-3.1-3.2-5-.8-1.9-1.1-3.9-1.1-6.1 0-2.1.4-4.1 1.1-6 .8-1.9 1.8-3.6 3.2-5.1 1.4-1.5 3-2.6 4.9-3.5 1.9-.8 4-1.3 6.3-1.3 1.8 0 3.5.4 5.3 1.3 1.8.9 3.1 2 4.1 3.6v-4Zm0 15.1c0-1.3-.2-2.5-.6-3.7-.4-1.2-1-2.2-1.8-3-.8-.9-1.7-1.6-2.8-2.1-1.1-.5-2.3-.8-3.7-.8-1.3 0-2.6.3-3.6.8-1.1.5-2 1.2-2.8 2.1-.8.9-1.4 1.9-1.8 3-.4 1.2-.6 2.4-.6 3.7 0 1.3.2 2.5.6 3.7.4 1.2 1 2.2 1.8 3 .8.9 1.7 1.6 2.8 2.1 1.1.5 2.3.8 3.6.8 1.3 0 2.6-.3 3.7-.8s2-1.2 2.8-2.1c.8-.9 1.4-1.9 1.8-3 .4-1.2.6-2.4.6-3.7ZM322.9 27v45.2h7.1V27h-7.1ZM200.5 72.2h7.1V49h12.1v-6.9h-19.2v30.1Zm80.3-30.1-8.9 23.1-8.9-23.1h-7.2l11.6 30.1h8.9l11.6-30.1h-7.1Zm37.5 17.7h-23.5c0 2.6 2.6 7.6 8.9 7.6 5.4 0 9-4.7 9-4.7l4.8 3.7c-4.3 4.5-7.8 6.6-13.3 6.6-9.8 0-16.4-6.2-16.4-15.8 0-8.7 6.9-15.8 15.5-15.8 9.7-.1 16.3 8.4 15 18.4Zm-6.5-5.2c-.1-.6-1-7.6-8.5-7.6-7.6 0-8.4 7-8.4 7.6h16.9Z"/><mask id="a" width="217" height="51" x="347.091" y="24.822" fill="#000" maskUnits="userSpaceOnUse"><path fill="#fff" d="M347.091 24.822h217v51h-217z"/><path d="M349.091 73V26.822h4.061v20.96h29.672v-20.96h4.061V73h-4.061V51.385h-29.672V73h-4.061ZM409.988 73.524c-3.1 0-5.786-.677-8.057-2.03-2.227-1.354-3.951-3.298-5.174-5.83-1.223-2.533-1.834-5.568-1.834-9.105 0-3.493.611-6.506 1.834-9.039 1.223-2.532 2.947-4.476 5.174-5.83 2.271-1.397 4.957-2.095 8.057-2.095 3.057 0 5.698.698 7.925 2.096 2.271 1.353 4.018 3.297 5.24 5.83 1.267 2.532 1.9 5.545 1.9 9.038 0 3.537-.633 6.572-1.9 9.105-1.222 2.532-2.969 4.476-5.24 5.83-2.227 1.353-4.868 2.03-7.925 2.03Zm0-3.406c3.319 0 5.982-1.157 7.991-3.472 2.009-2.314 3.013-5.676 3.013-10.087 0-4.41-1.004-7.772-3.013-10.087-2.009-2.314-4.672-3.471-7.991-3.471-3.362 0-6.048 1.157-8.057 3.471-1.965 2.315-2.947 5.677-2.947 10.087s.982 7.773 2.947 10.087c2.009 2.315 4.695 3.472 8.057 3.472ZM432.423 73V47.848a54.78 54.78 0 0 0-.131-3.8 37.379 37.379 0 0 0-.327-3.864h3.93l.524 7.533-.786.065c.436-1.834 1.222-3.34 2.358-4.52 1.135-1.222 2.445-2.139 3.93-2.75a11.93 11.93 0 0 1 4.585-.917c.567 0 1.091.043 1.572.13a7.051 7.051 0 0 1 1.441.263l-.131 3.602a6.72 6.72 0 0 0-1.572-.327 20.574 20.574 0 0 0-1.703-.066c-1.965 0-3.69.48-5.175 1.441-1.441.96-2.554 2.184-3.34 3.668-.786 1.485-1.179 2.991-1.179 4.52V73h-3.996ZM454.014 73V40.184h3.996V73h-3.996Zm-.655-40.872V27.15h5.371v4.978h-5.371ZM465.446 73v-2.751l22.86-27.969.065 1.114h-22.925v-3.21h26.724v2.751L469.114 70.97l-.065-1.179h23.842V73h-27.445ZM512.337 73.524c-3.101 0-5.786-.677-8.057-2.03-2.227-1.354-3.952-3.298-5.174-5.83-1.223-2.533-1.834-5.568-1.834-9.105 0-3.493.611-6.506 1.834-9.039 1.222-2.532 2.947-4.476 5.174-5.83 2.271-1.397 4.956-2.095 8.057-2.095 3.056 0 5.698.698 7.925 2.096 2.271 1.353 4.018 3.297 5.24 5.83 1.267 2.532 1.9 5.545 1.9 9.038 0 3.537-.633 6.572-1.9 9.105-1.222 2.532-2.969 4.476-5.24 5.83-2.227 1.353-4.869 2.03-7.925 2.03Zm0-3.406c3.318 0 5.982-1.157 7.991-3.472 2.008-2.314 3.013-5.676 3.013-10.087 0-4.41-1.005-7.772-3.013-10.087-2.009-2.314-4.673-3.471-7.991-3.471-3.363 0-6.048 1.157-8.057 3.471-1.965 2.315-2.947 5.677-2.947 10.087s.982 7.773 2.947 10.087c2.009 2.315 4.694 3.472 8.057 3.472ZM534.838 73V47.52c0-1.179-.044-2.38-.131-3.602a58.033 58.033 0 0 0-.393-3.734h3.93l.589 7.533h-.786c.961-2.62 2.511-4.629 4.651-6.026 2.139-1.398 4.628-2.096 7.467-2.096 3.886 0 6.812 1.026 8.777 3.078 2.008 2.053 3.013 5.262 3.013 9.629V73h-3.996V52.63c0-3.363-.677-5.787-2.03-7.271-1.354-1.529-3.45-2.293-6.288-2.293-3.319 0-5.961 1.005-7.926 3.013-1.921 2.009-2.882 4.716-2.882 8.122V73h-3.995Z"/></mask><path fill="#000" d="M349.091 73V26.822h4.061v20.96h29.672v-20.96h4.061V73h-4.061V51.385h-29.672V73h-4.061ZM409.988 73.524c-3.1 0-5.786-.677-8.057-2.03-2.227-1.354-3.951-3.298-5.174-5.83-1.223-2.533-1.834-5.568-1.834-9.105 0-3.493.611-6.506 1.834-9.039 1.223-2.532 2.947-4.476 5.174-5.83 2.271-1.397 4.957-2.095 8.057-2.095 3.057 0 5.698.698 7.925 2.096 2.271 1.353 4.018 3.297 5.24 5.83 1.267 2.532 1.9 5.545 1.9 9.038 0 3.537-.633 6.572-1.9 9.105-1.222 2.532-2.969 4.476-5.24 5.83-2.227 1.353-4.868 2.03-7.925 2.03Zm0-3.406c3.319 0 5.982-1.157 7.991-3.472 2.009-2.314 3.013-5.676 3.013-10.087 0-4.41-1.004-7.772-3.013-10.087-2.009-2.314-4.672-3.471-7.991-3.471-3.362 0-6.048 1.157-8.057 3.471-1.965 2.315-2.947 5.677-2.947 10.087s.982 7.773 2.947 10.087c2.009 2.315 4.695 3.472 8.057 3.472ZM432.423 73V47.848a54.78 54.78 0 0 0-.131-3.8 37.379 37.379 0 0 0-.327-3.864h3.93l.524 7.533-.786.065c.436-1.834 1.222-3.34 2.358-4.52 1.135-1.222 2.445-2.139 3.93-2.75a11.93 11.93 0 0 1 4.585-.917c.567 0 1.091.043 1.572.13a7.051 7.051 0 0 1 1.441.263l-.131 3.602a6.72 6.72 0 0 0-1.572-.327 20.574 20.574 0 0 0-1.703-.066c-1.965 0-3.69.48-5.175 1.441-1.441.96-2.554 2.184-3.34 3.668-.786 1.485-1.179 2.991-1.179 4.52V73h-3.996ZM454.014 73V40.184h3.996V73h-3.996Zm-.655-40.872V27.15h5.371v4.978h-5.371ZM465.446 73v-2.751l22.86-27.969.065 1.114h-22.925v-3.21h26.724v2.751L469.114 70.97l-.065-1.179h23.842V73h-27.445ZM512.337 73.524c-3.101 0-5.786-.677-8.057-2.03-2.227-1.354-3.952-3.298-5.174-5.83-1.223-2.533-1.834-5.568-1.834-9.105 0-3.493.611-6.506 1.834-9.039 1.222-2.532 2.947-4.476 5.174-5.83 2.271-1.397 4.956-2.095 8.057-2.095 3.056 0 5.698.698 7.925 2.096 2.271 1.353 4.018 3.297 5.24 5.83 1.267 2.532 1.9 5.545 1.9 9.038 0 3.537-.633 6.572-1.9 9.105-1.222 2.532-2.969 4.476-5.24 5.83-2.227 1.353-4.869 2.03-7.925 2.03Zm0-3.406c3.318 0 5.982-1.157 7.991-3.472 2.008-2.314 3.013-5.676 3.013-10.087 0-4.41-1.005-7.772-3.013-10.087-2.009-2.314-4.673-3.471-7.991-3.471-3.363 0-6.048 1.157-8.057 3.471-1.965 2.315-2.947 5.677-2.947 10.087s.982 7.773 2.947 10.087c2.009 2.315 4.694 3.472 8.057 3.472ZM534.838 73V47.52c0-1.179-.044-2.38-.131-3.602a58.033 58.033 0 0 0-.393-3.734h3.93l.589 7.533h-.786c.961-2.62 2.511-4.629 4.651-6.026 2.139-1.398 4.628-2.096 7.467-2.096 3.886 0 6.812 1.026 8.777 3.078 2.008 2.053 3.013 5.262 3.013 9.629V73h-3.996V52.63c0-3.363-.677-5.787-2.03-7.271-1.354-1.529-3.45-2.293-6.288-2.293-3.319 0-5.961 1.005-7.926 3.013-1.921 2.009-2.882 4.716-2.882 8.122V73h-3.995Z"/><path stroke="#fff" stroke-width="2.6" d="M349.091 73V26.822h4.061v20.96h29.672v-20.96h4.061V73h-4.061V51.385h-29.672V73h-4.061ZM409.988 73.524c-3.1 0-5.786-.677-8.057-2.03-2.227-1.354-3.951-3.298-5.174-5.83-1.223-2.533-1.834-5.568-1.834-9.105 0-3.493.611-6.506 1.834-9.039 1.223-2.532 2.947-4.476 5.174-5.83 2.271-1.397 4.957-2.095 8.057-2.095 3.057 0 5.698.698 7.925 2.096 2.271 1.353 4.018 3.297 5.24 5.83 1.267 2.532 1.9 5.545 1.9 9.038 0 3.537-.633 6.572-1.9 9.105-1.222 2.532-2.969 4.476-5.24 5.83-2.227 1.353-4.868 2.03-7.925 2.03Zm0-3.406c3.319 0 5.982-1.157 7.991-3.472 2.009-2.314 3.013-5.676 3.013-10.087 0-4.41-1.004-7.772-3.013-10.087-2.009-2.314-4.672-3.471-7.991-3.471-3.362 0-6.048 1.157-8.057 3.471-1.965 2.315-2.947 5.677-2.947 10.087s.982 7.773 2.947 10.087c2.009 2.315 4.695 3.472 8.057 3.472ZM432.423 73V47.848a54.78 54.78 0 0 0-.131-3.8 37.379 37.379 0 0 0-.327-3.864h3.93l.524 7.533-.786.065c.436-1.834 1.222-3.34 2.358-4.52 1.135-1.222 2.445-2.139 3.93-2.75a11.93 11.93 0 0 1 4.585-.917c.567 0 1.091.043 1.572.13a7.051 7.051 0 0 1 1.441.263l-.131 3.602a6.72 6.72 0 0 0-1.572-.327 20.574 20.574 0 0 0-1.703-.066c-1.965 0-3.69.48-5.175 1.441-1.441.96-2.554 2.184-3.34 3.668-.786 1.485-1.179 2.991-1.179 4.52V73h-3.996ZM454.014 73V40.184h3.996V73h-3.996Zm-.655-40.872V27.15h5.371v4.978h-5.371ZM465.446 73v-2.751l22.86-27.969.065 1.114h-22.925v-3.21h26.724v2.751L469.114 70.97l-.065-1.179h23.842V73h-27.445ZM512.337 73.524c-3.101 0-5.786-.677-8.057-2.03-2.227-1.354-3.952-3.298-5.174-5.83-1.223-2.533-1.834-5.568-1.834-9.105 0-3.493.611-6.506 1.834-9.039 1.222-2.532 2.947-4.476 5.174-5.83 2.271-1.397 4.956-2.095 8.057-2.095 3.056 0 5.698.698 7.925 2.096 2.271 1.353 4.018 3.297 5.24 5.83 1.267 2.532 1.9 5.545 1.9 9.038 0 3.537-.633 6.572-1.9 9.105-1.222 2.532-2.969 4.476-5.24 5.83-2.227 1.353-4.869 2.03-7.925 2.03Zm0-3.406c3.318 0 5.982-1.157 7.991-3.472 2.008-2.314 3.013-5.676 3.013-10.087 0-4.41-1.005-7.772-3.013-10.087-2.009-2.314-4.673-3.471-7.991-3.471-3.363 0-6.048 1.157-8.057 3.471-1.965 2.315-2.947 5.677-2.947 10.087s.982 7.773 2.947 10.087c2.009 2.315 4.694 3.472 8.057 3.472ZM534.838 73V47.52c0-1.179-.044-2.38-.131-3.602a58.033 58.033 0 0 0-.393-3.734h3.93l.589 7.533h-.786c.961-2.62 2.511-4.629 4.651-6.026 2.139-1.398 4.628-2.096 7.467-2.096 3.886 0 6.812 1.026 8.777 3.078 2.008 2.053 3.013 5.262 3.013 9.629V73h-3.996V52.63c0-3.363-.677-5.787-2.03-7.271-1.354-1.529-3.45-2.293-6.288-2.293-3.319 0-5.961 1.005-7.926 3.013-1.921 2.009-2.882 4.716-2.882 8.122V73h-3.995Z" mask="url(#a)"/><path fill="#7746EC" d="M18.8 86.514A47.9 47.9 0 0 1 2 49.994c0-13.26 5.38-25.26 14.06-33.94 18.4-18.394 48.102-18.78 66.976-.874 18.872 17.908 20.044 47.59 2.64 66.928-17.404 19.34-47.044 21.294-66.836 4.406h-.04Zm-3.86-33.56c5.3-4.7 9.06-10.96 19.06-10.96 16 0 16 16 32 16 10 0 13.76-6.26 19.08-10.96-1.634-19.374-18.666-33.754-38.04-32.12-19.374 1.634-33.754 18.666-32.12 38.04h.02Z"/></svg>

<svg viewBox="0 0 568 100" fill="none" xmlns="http://www.w3.org/2000/svg">
    <style>
        #horizon { fill: #000 } @media (prefers-color-scheme:dark) { #horizon { fill: #fff } }
    </style>
    <path id="horizon" d="M147.5 65.6H161.5V72.3H140V27H147.5V65.6ZM187.8 42.1H194.9V72.2H187.8V68.1C186.8 69.6 185.5 70.8 183.7 71.7C181.9 72.6 180.2 73 178.4 73C176.1 73 174 72.6 172.1 71.7C170.2 70.9 168.6 69.7 167.2 68.2C165.8 66.7 164.8 65.1 164 63.2C163.2 61.3 162.9 59.3 162.9 57.1C162.9 55 163.3 53 164 51.1C164.8 49.2 165.8 47.5 167.2 46C168.6 44.5 170.2 43.4 172.1 42.5C174 41.7 176.1 41.2 178.4 41.2C180.2 41.2 181.9 41.6 183.7 42.5C185.5 43.4 186.8 44.5 187.8 46.1V42.1ZM187.8 57.2C187.8 55.9 187.6 54.7 187.2 53.5C186.8 52.3 186.2 51.3 185.4 50.5C184.6 49.6 183.7 48.9 182.6 48.4C181.5 47.9 180.3 47.6 178.9 47.6C177.6 47.6 176.3 47.9 175.3 48.4C174.2 48.9 173.3 49.6 172.5 50.5C171.7 51.4 171.1 52.4 170.7 53.5C170.3 54.7 170.1 55.9 170.1 57.2C170.1 58.5 170.3 59.7 170.7 60.9C171.1 62.1 171.7 63.1 172.5 63.9C173.3 64.8 174.2 65.5 175.3 66C176.4 66.5 177.6 66.8 178.9 66.8C180.2 66.8 181.5 66.5 182.6 66C183.7 65.5 184.6 64.8 185.4 63.9C186.2 63 186.8 62 187.2 60.9C187.6 59.7 187.8 58.5 187.8 57.2ZM245.3 42.1H252.4V72.2H245.3V68.1C244.3 69.6 243 70.8 241.2 71.7C239.4 72.6 237.7 73 235.9 73C233.6 73 231.5 72.6 229.6 71.7C227.7 70.9 226.1 69.7 224.7 68.2C223.3 66.7 222.3 65.1 221.5 63.2C220.7 61.3 220.4 59.3 220.4 57.1C220.4 55 220.8 53 221.5 51.1C222.3 49.2 223.3 47.5 224.7 46C226.1 44.5 227.7 43.4 229.6 42.5C231.5 41.7 233.6 41.2 235.9 41.2C237.7 41.2 239.4 41.6 241.2 42.5C243 43.4 244.3 44.5 245.3 46.1V42.1ZM245.3 57.2C245.3 55.9 245.1 54.7 244.7 53.5C244.3 52.3 243.7 51.3 242.9 50.5C242.1 49.6 241.2 48.9 240.1 48.4C239 47.9 237.8 47.6 236.4 47.6C235.1 47.6 233.8 47.9 232.8 48.4C231.7 48.9 230.8 49.6 230 50.5C229.2 51.4 228.6 52.4 228.2 53.5C227.8 54.7 227.6 55.9 227.6 57.2C227.6 58.5 227.8 59.7 228.2 60.9C228.6 62.1 229.2 63.1 230 63.9C230.8 64.8 231.7 65.5 232.8 66C233.9 66.5 235.1 66.8 236.4 66.8C237.7 66.8 239 66.5 240.1 66C241.2 65.5 242.1 64.8 242.9 63.9C243.7 63 244.3 62 244.7 60.9C245.1 59.7 245.3 58.5 245.3 57.2ZM322.9 27V72.2H330V27H322.9ZM200.5 72.2H207.6V49H219.7V42.1H200.5V72.2ZM280.8 42.1L271.9 65.2L263 42.1H255.8L267.4 72.2H276.3L287.9 42.1H280.8ZM318.3 59.8H294.8C294.8 62.4 297.4 67.4 303.7 67.4C309.1 67.4 312.7 62.7 312.7 62.7L317.5 66.4C313.2 70.9 309.7 73 304.2 73C294.4 73 287.8 66.8 287.8 57.2C287.8 48.5 294.7 41.4 303.3 41.4C313 41.3 319.6 49.8 318.3 59.8ZM311.8 54.6C311.7 54 310.8 47 303.3 47C295.7 47 294.9 54 294.9 54.6H311.8Z"/>
    <path id="horizon" d="M349.091 73V26.822H353.152V47.782H382.824V26.822H386.885V73H382.824V51.385H353.152V73H349.091ZM409.988 73.524C406.888 73.524 404.202 72.847 401.931 71.494C399.704 70.14 397.98 68.196 396.757 65.664C395.534 63.131 394.923 60.096 394.923 56.559C394.923 53.066 395.534 50.053 396.757 47.52C397.98 44.988 399.704 43.044 401.931 41.69C404.202 40.293 406.888 39.595 409.988 39.595C413.045 39.595 415.686 40.293 417.913 41.691C420.184 43.044 421.931 44.988 423.153 47.521C424.42 50.053 425.053 53.066 425.053 56.559C425.053 60.096 424.42 63.131 423.153 65.664C421.931 68.196 420.184 70.14 417.913 71.494C415.686 72.847 413.045 73.524 409.988 73.524ZM409.988 70.118C413.307 70.118 415.97 68.961 417.979 66.646C419.988 64.332 420.992 60.97 420.992 56.559C420.992 52.149 419.988 48.787 417.979 46.472C415.97 44.158 413.307 43.001 409.988 43.001C406.626 43.001 403.94 44.158 401.931 46.472C399.966 48.787 398.984 52.149 398.984 56.559C398.984 60.969 399.966 64.332 401.931 66.646C403.94 68.961 406.626 70.118 409.988 70.118ZM432.423 73V47.848C432.423 46.5802 432.38 45.3128 432.292 44.048C432.25 42.7552 432.141 41.4655 431.965 40.184H435.895L436.419 47.717L435.633 47.782C436.069 45.948 436.855 44.442 437.991 43.262C439.126 42.04 440.436 41.123 441.921 40.512C443.374 39.9069 444.932 39.5952 446.506 39.595C447.073 39.595 447.597 39.638 448.078 39.725C448.566 39.7624 449.049 39.8505 449.519 39.988L449.388 43.59C448.879 43.4186 448.351 43.3088 447.816 43.263C447.249 43.2175 446.681 43.1955 446.113 43.197C444.148 43.197 442.423 43.677 440.938 44.638C439.497 45.598 438.384 46.822 437.598 48.306C436.812 49.791 436.419 51.297 436.419 52.826V73H432.423ZM454.014 73V40.184H458.01V73H454.014ZM453.359 32.128V27.15H458.73V32.128H453.359ZM465.446 73V70.249L488.306 42.28L488.371 43.394H465.446V40.184H492.17V42.935L469.114 70.97L469.049 69.791H492.891V73H465.446ZM512.337 73.524C509.236 73.524 506.551 72.847 504.28 71.494C502.053 70.14 500.328 68.196 499.106 65.664C497.883 63.131 497.272 60.096 497.272 56.559C497.272 53.066 497.883 50.053 499.106 47.52C500.328 44.988 502.053 43.044 504.28 41.69C506.551 40.293 509.236 39.595 512.337 39.595C515.393 39.595 518.035 40.293 520.262 41.691C522.533 43.044 524.28 44.988 525.502 47.521C526.769 50.053 527.402 53.066 527.402 56.559C527.402 60.096 526.769 63.131 525.502 65.664C524.28 68.196 522.533 70.14 520.262 71.494C518.035 72.847 515.393 73.524 512.337 73.524ZM512.337 70.118C515.655 70.118 518.319 68.961 520.328 66.646C522.336 64.332 523.341 60.97 523.341 56.559C523.341 52.149 522.336 48.787 520.328 46.472C518.319 44.158 515.655 43.001 512.337 43.001C508.974 43.001 506.289 44.158 504.28 46.472C502.315 48.787 501.333 52.149 501.333 56.559C501.333 60.969 502.315 64.332 504.28 66.646C506.289 68.961 508.974 70.118 512.337 70.118ZM534.838 73V47.52C534.838 46.341 534.794 45.14 534.707 43.918C534.616 42.6694 534.485 41.4241 534.314 40.184H538.244L538.833 47.717H538.047C539.008 45.097 540.558 43.088 542.698 41.691C544.837 40.293 547.326 39.595 550.165 39.595C554.051 39.595 556.977 40.621 558.942 42.673C560.95 44.726 561.955 47.935 561.955 52.302V73H557.959V52.63C557.959 49.267 557.282 46.843 555.929 45.359C554.575 43.83 552.479 43.066 549.641 43.066C546.322 43.066 543.68 44.071 541.715 46.079C539.794 48.088 538.833 50.795 538.833 54.201V73H534.838Z"/>
    <path d="M18.8 86.514C13.5209 82.0074 9.28437 76.4074 6.38358 70.1016C3.48278 63.7959 1.98707 56.935 1.99999 49.994C1.99999 36.734 7.37999 24.734 16.06 16.054C34.46 -2.33999 64.162 -2.726 83.036 15.18C101.908 33.088 103.08 62.77 85.676 82.108C68.272 101.448 38.632 103.402 18.84 86.514H18.8ZM14.94 52.954C20.24 48.254 24 41.994 34 41.994C50 41.994 50 57.994 66 57.994C76 57.994 79.76 51.734 85.08 47.034C83.446 27.66 66.414 13.28 47.04 14.914C27.666 16.548 13.286 33.58 14.92 52.954H14.94Z" fill="#7746EC"/>
</svg>
